X:0606
T:German Hornpipe.
M:2/4
L:1/8
Q:1/4=100
P:ABCA % Aird uses a da capo
I: :: || DC
Z:Jack Campin * www.campin.me.uk * 2009
K:G
P:A
gd Td2| ge       Te2     | d2 (c/B/A/G/)|(F/G/A/F/) D2 |\
gd Td2| ge       Te2     | dB (d/c/B/A/)| GG        G2::
P:B
FF TF2| GG        G2     | cc (d/c/B/A/)| Bd````````BG |\
FF TF2| GG       (GA/B/) | cA``GF       | G2        G2::
P:C
fd``ef|(g/f/g/a/) g(b/g/)| fd``ef       | g2        bg |\
fd``ef|(g/f/g/a/) g(b/g/)| fd``ef       | g2        g2||

